X:676
T: The Maple Leaf
Z: Piano Box Version by Martin Fleischmann
H: Created 2015-04-01 /  Last Modified 2015-04-01
R: reel
M: 4/4
L: 1/8
K: Emin
|: "em" E2 EF GE~E2 | "bm" ABAB AGFG | "em" E2EF GFGA| "bm" B2ed cBAG |
"em" E2 EF GE~E2 | "bm" ABAB AGFA | "em" Beed BddB |1 "bm"cBAG AGFG :|2 "bm" cBAG AGFA :|
|:BeeB efge|BeeB dBAc|BeeB efge|agfa geed|
BeeB efge|BeeB dBAg|agfa gfed|1  ABAB AGFA:|2 ABAB AGFG :|

